X:1
T:Behave Youtrself
T:Behave Yourself
T:Roy Bargy
T:From Piano Syncopations Vol. 1, Roy Bargy, 1922
T:From Piano Syncopations Vol. 1, Roy Bargy, 1922
T:From Piano Syncopations Vol. 1, Roy Bargy, 1922
T:From Piano Syncopations Vol. 1, Roy Bargy, 1922
T:From Piano Syncopations Vol. 1, Roy Bargy, 1922
C:Roy Bargy
Z:From Piano Syncopations Vol. 1, Roy Bargy, 1922
%%score { ( 1 3 ) | ( 2 4 ) }
L:1/8
Q:1/4=160
M:4/4
K:F
V:1 treble nm="Piano" snm="Pno."
V:3 treble 
V:2 bass 
V:4 bass 
V:1
!f!"^Moderato\n"!8va(! f'/ | [ac'g']>f' [ac'g']>c' [fad']>c' [fad']>!8va)!f | %2
 [Acg]>f [Acg]>c [FAd]>c [FAd]>c | [F=B][_A_a][Aa][Aa]- [Aa]>[Gg] [Ff]2 | %4
 [Gcg]4 [cebc']>!mf!d' [_gac']>d' |: a c3 z3/2 g<[G^cf]g/ | d F3 z3/2 g<[Acf]g/ | %7
 [df]2 g>^ga>c' [fd']>[fac'f']- | [fac'f']g/^g/ [ac']c/^c/ [df]=G/^G/ [A=c]>_e | %9
 [^Fcd]>[c^fb]-[cfb]>[cfa]- [cfa]>^g [cfa]2 | %10
 [=B=fg]>!8va(![f=be']-[fbe']>[fbd']- [fbd']>e' [fbd']2 | %11
 [e_bc']>[be'a']-[be'a']>[be'g']- [be'g']>a' [be'g']2!8va)! | (3([ac']gf) d>f [Fc]>d' [e^gc']>d' | %13
 a c3 z3/2 g<[G^cf]g/ | d F3 z3/2 g<[Acf]g/ | [df]2 g>^g [ce]2- [cec']>!8va(![f=bf']- | %16
 [fbf']>[aa'][gg']>[ff'] [aa']>[gg'][ff']>[dd'] | [cfac']2!8va)!{CDE} !>!F2 [Ac]2- [Ac]>[^Gd] | %18
 [Ac]>[E^G][FA]>[Gd] [Ac]>[EG] [FA]2 | z3/2 b/ _a>f [cea]>[Beg]- [Beg]2 |1 %20
 [Acf]>d'[^dac']>d' [ebc']>d'[_gac']>d' :|2 [Acf]2 d2 [^ca]>[e^g] [fa]>A || %22
 [e^g]>[fa]A>[eg] [fa]>A[e=g]>A | [e^g]>[fa]A>[eg] [fa]>A[e=g]>A | [c^f]4 [dfc'd']2 (3^FG^G | %25
 [^FA]>[^E^G][FA]>[_E=G]!8va(! [d^f]>[a^c'][bd']>d | [a^c']>[bd']d>[ac'] [bd']>d[a=c']>d | %27
 [a^c']>[bd']d>[ac'] [bd']>d[a=c']>d | [gb]4 [gbg']>e'[abd']>e' | %29
 [gbd']>!8va)!e[ABd]>e [GBd]>E[B,D]>E | ^C2 [A^ca]>[^G^g] [Aa]>[^c^c'][dd']>[ee'] | %31
 [faf']>[dd']-[dd']>[Afa]- [Afa]>[Gg] [Ff]2 | z2 [A^ca]>[^G^g] [Aa]>[^c^c'][dd']>[ee'] | %33
 [faf']>[dd']-[dd']>[Afa]- [Afa]>[Gg] [Ff]2 | [E^ce]2 [Aea]2 [=B^f=b]2 [^c^g^c']>(d- | %35
 [dad']>)[ee'] [dd'][^c^g^c']- [cgc']>g [=B=b]2 | [A^ca]2!8va(! (3a'b'a' [_bd'g']2 (3g'a'g' | %37
 [a^c'=f']2 (3f'g'f' [g^c'e']>[e'^g'][f'a']>a!8va)! | [e^g]>[fa]A>[eg] [fa]>A[e=g]>A | %39
 [e^g]>[fa]A>[eg] [fa]>A[e=g]>A | [c^f]4 [dfc'd']2 (3^FG^G | %41
 [^FA]>[^E^G][FA]>[_E=G]!8va(! [d^f]>[a^c'][bd']>d | [a^c']>[bd']d>[ac'] [bd']>d[a=c']>d | %43
 [a^c']>[bd']d>[ac'] [bd']>d[a=c']>d | [gb]4 [gbg']>e'[abd']>e' | %45
 [gbd']>!8va)!e[ABd]>e [GBd]>E[B,D]>E | ^C2 [A^ca]>[^G^g] [Aa]>[^c^c'][dd']>[ee'] | %47
 [faf']>[dd']-[dd']>[Afa]- [Afa]>[Gg] [Ff]2 | z2!8va(! [d^fd']>[^c^c'] [dd']>[f^f'][gg']>[aa'] | %49
 [bd'b']>[gg']-[gg']>[=f^gf']- [fgf']>[ee'] [dd']2 | %50
 [cfac']2!8va)!{g^g} [fa]>[^gd'] [ac']2 [=B^g]>[ca] | [Af]2{c^c} [Ad]2 [=cf]2{c^c} [Ad]2 | %52
 z3/2 [ff']<[ee'][dd']/ [cc']>[Acea]- [Acea]2 | [FAf]>d[E^Gc]>d [FAcf]2 z2 || %54
[K:Bb]!8va(! [bd'f']2 [fa]>^c' [bd']>[af']- [af']2!8va)! | [egb]2 [Ad]>f [eg]>[db]- [db]2 | %56
 z3/2 f<[Acg]d/ [_Adf]>[Adg]-[Adg]>d | [FAef]4!8va(! [fac'f']2- [fac'f']>^c' |: %58
 [bd']>^c'd'>g' [a^c'f']2 [af']>c' | [_ad']>g' [ac'f']2 [g=bd']>^c'[gbd']>g'!8va)! | %60
 [=ebd']2 [ceg]>^f [ceg]4 | B>b[c=ea]>g [deb]>a[Beg]>^f | [efa]>^g[efa]>d' [e^fc']2 [efc']>^g | %63
 [ea]>d' [egc']2 [ea]>^g[ea]>d' | [dfb]2 [dg]>f [dg]>[dfb]-[dfb]>c' | %65
 [=ed']>b[ed']>[_eac']- [eac']>^g[af']>^c' |!8va(! [bd']>^c'd'>g' [ac'f']2 [af']>c' | %67
 [_ad']>g' [ac'f']2 [g=bd']>^c'[gbd']>g'!8va)! | [=ebd']2 [ceg]>^f [ceg]4 | %69
 B>b[cac']>[=ebd']- [ebd']>c'[eb]>g |!8va(! [d'g']>[g_d'g']-[gd'g']>[gc'g']- [gc'g']>f'[f=d']>=b | %71
 [=e_bd']>[ebd']-[ebd']>[fad']- [fad']>c' [faf']2!8va)! | %72
 [dg]>[G_dg]-[Gdg]>[Gcg]- [Gcg]>f[F=d]>=B | [=E_Bd]>[EBd]-[EBd]>[FAd]- [FAd]>c[Af]>^c' | %74
!8va(! [fbd']>^c'd'>g' [ac'f']2 [af']>c' | [f=c'd']2 [fc'd']>c' [f=b]>d' [gbg']2 | %76
 z3/2 _b'<[bd'g']d'/ [_fb_d']>[eac']- [eac']2!8va)! |1 %77
 [dfb]>[B=e_a]-[Bea]>_g [=A_ef]2!8va(! [fc'f']>^c'!8va)! :|2 %78
 [dfb]2 (3[A^cg]fg [Bdfb]2- [Bdfb]>f' ||[K:F]!8va(! [ac'g']>f'[ac'g']>c' [fad']>c'[fad']>f'!8va)! | %80
 [Acg]>f[Acg]>c [FAd]>c[FAd]>c | [F=B][_A_a][Aa][Aa]- [Aa]>[Gg] [Ff]2 | %82
 [Gcg]4 [cebc']>d'[_gac']>d' || a c3 z3/2 g<[G^cf]g/ | d F3 z3/2 g<[Acf]g/ | %85
 [df]2 g>^ga>c' [fd']>[fac'f']- | [fac'f']g/^g/ [ac']c/^c/ [df]=G/^G/ [A=c]>_e | %87
 [^Fcd]>[c^fb]-[cfb]>[cfa]- [cfa]>^g [cfa]2 | %88
 [=B=fg]>!8va(![f=be']-[fbe']>[fbd']- [fbd']>e' [fbd']2 | %89
 [e_bc']>[be'a']-[be'a']>[be'g']- [be'g']>a' [be'g']2!8va)! | (3([ac']gf) d>f [Fc]>d' [e^gc']>d' | %91
 a c3 z3/2 g<[G^cf]g/ | d F3 z3/2 g<[Acf]g/ | [df]2 g>^g [ce]2- [cec']>!8va(![f=bf']- | %94
 [fbf']>[aa'][gg']>[ff'] [aa']>[gg'][ff']>[dd'] | [cfac']2!8va)!{CDE} !>!F2 !>![Ac]2- [Ac]>[^Gd] | %96
 [Ac]>[E^G][FA]>[Gd] [Ac]>[EG] [FA]2 | z3/2 _b<_af/ [c=e_a]>[Beg]- [Beg]2 | %98
 [Acf]2!8va(! [e^gd']>c' [fac'f']2 z2!8va)! |] %99
V:2
 z/ |[K:treble] (f2 e2 d2 c2) |[K:bass] (F2 E2 D2 C2) | [_D,F,=B,]3 [D,F,B,]- [D,F,B,]2 [D,F,B,]2 | %4
 [C,E,_B,]2 (C,,2 [B,CE]2) z2 |: F,2 [A,C]2 E,2 [G,A,^C]2 | D,2 [F,A,D]2 C,2 [F,A,_E]2 | %7
 x2 ([B,D]2 [A,C]2 [G,B,]2) | !arpeggio![F,,C,A,]8 | D,2 [^F,A,C]2 D,2 [F,A,C]2 | %10
 G,,2 [G,=B,F]2 G,,2 [G,B,F]2 | C,2 [B,CE]2 C,2 [B,CE]2 | [F,,F,]2 [B,,B,]2 [A,,A,]2 [C,B,]2 | %13
 F,2 [A,C]2 E,2 [G,A,^C]2 | D,2 [F,A,D]2 C,2 [F,A,_E]2 | B,,2 [F,B,D]2 A,,2 [E,A,C]2 | %16
 G,,2 [G,=B,F]2 =B,,2 [G,B,F]2 | C,2{F,G,^G,} !>!A,2 !>!F2- F>E | F>=B,C>E F>B, C2 | %19
 ^C,2 [F,=B,]2 =C,2 [_B,CE]2 |1 [F,,F,]2 [^F,,^F,]2 [G,,G,]2 [C,,C,]2 :|2 %21
 [F,,F,]2 [B,,B,]2 [A,,A,]2 A,,2 || D,2 [F,A,D]2 A,,2 [G,A,^C]2 | D,2 [F,A,D]2 A,,2 [G,A,^C]2 | %24
 D,2 [^F,A,D]2 [F,A,D]2 (3A,B,=B, | C>=B,C>_B, A,2 D,2 | G,,2 [G,B,D]2 D,2 [^F,CD]2 | %27
 G,,2 [G,B,D]2 D,2 [^F,CD]2 | G,,2 [G,B,D]2[K:treble] [GBd]4 |[K:bass] z4 z2 [G,,G,]2 | %30
 [A,,A,]2 [G,A,^C]2 A,,2 [G,A,C]2 | D,2 [F,A,D]2 A,,2 [F,A,D]2 | E,2 [G,A,^C]2 A,,2 [G,A,C]2 | %33
 D,2 [F,A,D]2 A,,2 [F,A,D]2 | [A,,A,]2 [^C,^C]2 [D,D]2 [E,E]2 | [^F,^F]3 [E,E]- [E,E]2 [E,D]2 | %36
 ([A,^CE]2 A,,2) ([_B,DG]2 A,,2) | ([A,^CF]2 A,,2) ([G,CE]2 A,,2) | D,2 [F,A,D]2 A,,2 [G,A,^C]2 | %39
 D,2 [F,A,D]2 A,,2 [G,A,^C]2 | D,2 [^F,A,D]2 [F,A,D]2 (3A,B,=B, | C>=B,C>_B, A,2 D,2 | %42
 G,,2 [G,B,D]2 D,2 [^F,CD]2 | G,,2 [G,B,D]2 D,2 [^F,CD]2 | G,,2 [G,B,D]2[K:treble] [GBd]4 | %45
[K:bass] z4 z2 [G,,G,]2 | [A,,A,]2 [G,A,^C]2 A,,2 [G,A,C]2 | D,2 [F,A,D]2 A,,2 [F,A,D]2 | %48
 D,2 [^F,A,C]2 A,,2 [F,A,C]2 | G,,2 [G,B,]2 =B,,2 [_A,=B,D]2 | [C,C]2 z2 z4 | z8 | %52
 G,,2 [G,=B,F]2 C,2 [_B,CE]2 | [F,,F,]2 [C,^G,]2 !arpeggio![F,,C,A,]2 z2 || %54
[K:Bb] ([B,F]2 [A,E]2 [G,D]2 [F,C]2) | ([E,B,]2 [D,A,]2 [C,G,]2 [B,,F,]2) | %56
 !arpeggio![A,,F,C]4 [=B,,=B,]4 | [C,C]2 F,,2 [F,A,E]4 |: ([F,B,D]2 B,,2) ([F,A,^C]2 A,,2) | %59
 ([F,_A,C]2 _A,,2) ([F,G,=B,]2 G,,2) | ([B,C=E]2 C,2) ([B,CE]2 C,2) | G,,2 [B,C=E]2 C,2 [B,CE]2 | %62
 ([F,A,_E]2 F,,2) ([^F,A,E]2 =F,,2) | ([G,A,E]2 F,,2) ([F,A,E]2 F,,2) | %64
 B,,2 [G,B,D]2 F,,2 [G,B,D]2 | C,2 [B,C=E]2 F,,2 [F,A,_E]2 | ([F,B,D]2 B,,2) ([F,A,^C]2 A,,2) | %67
 ([F,_A,=C]2 _A,,2) ([F,G,=B,]2 G,,2) | ([B,C=E]2 C,2) ([B,CE]2 C,2) | G,,2 [B,C=E]2 C,2 [B,CE]2 | %70
 [B,,B,]2 [A,,A,]2 [_A,,_A,]2 [G,,G,]2 | [G,,G,]2 [_G,,_G,]2 [F,,F,]2 [F,A,E]2 | %72
 [B,,B,]2 [A,,A,]2 [_A,,_A,]2 [G,,G,]2 | [G,,G,]2 [_G,,_G,]2 [F,,F,]2 [F,A,E]2 | %74
 B,,2 [F,B,D]2 A,,2 [F,A,^C]2 | _A,,2 [F,_A,D]2 G,,2 [G,=B,F]2 | %76
 G,,2 [_B,CE]2 [_G,,_G,]2 [F,,F,]2 |1 [B,,B,]2 [_G,,_G,]2 [F,,F,]2 [F,A,E]2 :|2 %78
 [B,,B,]2 [F,E]2 !arpeggio![B,,F,D]4 ||[K:F][K:treble]!f! (f2 e2 d2 c2) |[K:bass] (F2 E2 D2 C2) | %81
 [^C,F,=B,]3 [C,F,B,]- [C,F,B,]2 [C,F,B,]2 | [C,E,_B,]2 (C,,2 [B,CE]2)!mf! z2 || %83
 F,2 [A,C]2 E,2 [G,A,^C]2 | D,2 [F,A,D]2 C,2 [F,A,_E]2 | B,,2 ([B,D]2 [A,C]2 [G,B,]2) | %86
 !arpeggio![F,,C,A,]8 | D,2 [^F,A,C]2 D,2 [F,A,C]2 | G,,2 [G,=B,F]2 G,,2 [G,B,F]2 | %89
 C,2 [B,CE]2 C,2 [B,CE]2 | [F,,F,]2 [B,,B,]2 [A,,A,]2 [B,,B,]2 | F,2 [A,C]2 E,2 [G,A,^C]2 | %92
 D,2 [F,A,D]2 C,2 [F,A,_E]2 | B,,2 [F,B,D]2 A,,2 [E,A,C]2 | G,,2 [G,=B,F]2 =B,,2 [G,B,F]2 | %95
 C,2({F,G,^G,)} !>!A,2 !>!F2- F>E | F>=B,C>E F>B, C2 | _D,2 [F,=B,]2 C,2 [_B,CE]2 | %98
 [F,,F,]2 [C,B,]2 !arpeggio![F,,C,A,]2 z2 |] %99
V:3
!8va(! x/ | x15/2!8va)! x/ | x8 | x8 | x8 |: [ac']4 x4 | [df]4 x4 | x8 | x8 | x8 | %10
 x3/2!8va(! x13/2 | x8!8va)! | x8 | [ac']4 x4 | [df]4 x4 | x4 ac'- x2!8va(! | x8 | x2!8va)! x6 | %18
 x8 | x8 |1 x8 :|2 x2 (3geg x4 || x8 | x8 | x8 | x4!8va(! x4 | x8 | x8 | x8 | x3/2!8va)! x13/2 | %30
 x8 | x8 | x8 | x8 | x8 | x8 | x2!8va(! x6 | x8!8va)! | x8 | x8 | x8 | x4!8va(! x4 | x8 | x8 | x8 | %45
 x3/2!8va)! x13/2 | x8 | x8 | x2!8va(! x6 | x8 | x2!8va)! x6 | x8 | x8 | x8 || %54
[K:Bb]!8va(! x8!8va)! | x8 | x8 | x4!8va(! x4 |: x8 | x8!8va)! | x8 | x8 | x8 | x8 | x8 | x8 | %66
!8va(! x8 | x8!8va)! | x8 | x8 |!8va(! x8 | x8!8va)! | x8 | x8 |!8va(! x8 | x8 | x8!8va)! |1 %77
 x6!8va(! x2!8va)! :|2 x8 ||[K:F]!8va(! x8!8va)! | x8 | x8 | x8 || [ac']4 x4 | [df]4 x4 | x8 | x8 | %87
 x8 | x3/2!8va(! x13/2 | x8!8va)! | x8 | [ac']4 x4 | [df]4 x4 | x4 ac'- x2!8va(! | x8 | %95
 x2!8va)! x6 | x8 | x8 | x2!8va(! x6!8va)! |] %99
V:4
 x/ |[K:treble] x8 |[K:bass] x8 | x8 | x8 |: x8 | x8 | B,,2 F,6 | x8 | x8 | x8 | x8 | x8 | x8 | %14
 x8 | x8 | x8 | x8 | x8 | x8 |1 x8 :|2 x8 || x8 | x8 | x8 | x8 | x8 | x8 | x4[K:treble] x4 | %29
[K:bass] x8 | x8 | x8 | x8 | x8 | x8 | x8 | x8 | x8 | x8 | x8 | x8 | x8 | x8 | x8 | %44
 x4[K:treble] x4 |[K:bass] x8 | x8 | x8 | x8 | x8 | x8 | x8 | x8 | x8 ||[K:Bb] x8 | x8 | x8 | x8 |: %58
 x8 | x8 | x8 | x8 | x8 | x8 | x8 | x8 | x8 | x8 | x8 | x8 | x8 | x8 | x8 | x8 | x8 | x8 | x8 |1 %77
 x8 :|2 x8 ||[K:F][K:treble] x8 |[K:bass] x8 | x8 | x8 || x8 | x8 | x2 F,4 x2 | x4 z4 | x8 | x8 | %89
 x8 | x8 | x8 | x8 | x8 | x8 | x8 | x8 | x8 | x8 |] %99

